X:22
M:6/8
L:1/8
K:G
|: d2d ded | afd afd | g2d c2B | ABG FED | G2G GAG | dBG Bdg | dBG cAF | G3 G3 :|

